rospo-icon-theme-classic-common/64x64/mimetypes/qgis-qpt.svg

<svg height="64" viewBox="0 0 64 64" width="64" xmlns="http://www.w3.org/2000/svg"><path d="m4 56.000007v1.999997c0 1.661998 1.3379982 2.999996 2.9999959 2.999996h49.9999321c1.661998 0 2.999996-1.337998 2.999996-2.999996v-1.999997c0 1.661998-1.337998 2.999996-2.999996 2.999996h-49.9999321c-1.6619977 0-2.9999959-1.337998-2.9999959-2.999996z" opacity=".2"/><rect fill="#e4e4e4" height="56" rx="3" transform="matrix(0 -1 -1 0 0 0)" width="56" x="-60" y="-60"/><path d="m7 3.9996064c-1.6619977 0-3 1.3380023-3 3v1c0-1.6619977 1.3380023-3 3-3h50c1.661998 0 3 1.3380023 3 3v-1c0-1.6619977-1.338002-3-3-3z" fill="#fff" opacity=".2"/><g fill-rule="evenodd"><path d="m6.7999962 60 25.1999658-25.199966 25.199966 25.199966z" fill="#707070"/><path d="m59.999924 57.200003-25.199966-25.199966 25.199966-25.1999656z" fill="#9f9f9f"/><path d="m34.475959 29.400041-4.953193 4.953193 25.527965 25.523966h1.949217c1.661998 0 2.999996-1.337998 2.999996-2.999996v-1.949198l-25.523965-25.527965z" fill="#fff"/><path d="m55.049931 4.0000752-51.049931 50.9999308v1.949198c0 1.661997 1.3379982 2.999996 2.9999959 2.999996h1.9492174l51.0499307-51.1999312v-1.9491974c0-1.6619978-1.337998-2.999996-2.999996-2.999996h-1.949217z" fill="#fff"/></g></svg>

<svg xmlns="http://www.w3.org/2000/svg" width="64" height="64" version="1.1" viewBox="0 0 64 64">
 <path style="opacity:0.2" d="m 4,56.000007 0,1.999997 C 4,59.662002 5.3379982,61 6.9999959,61 l 49.9999321,0 c 1.661998,0 2.999996,-1.337998 2.999996,-2.999996 l 0,-1.999997 c 0,1.661998 -1.337998,2.999996 -2.999996,2.999996 l -49.9999321,0 C 5.3379982,59.000003 4,57.662005 4,56.000007 Z"/>
 <rect style="fill:#cccccc" width="56" height="56" x="-60" y="-60" rx="3" ry="3" transform="matrix(0,-1,-1,0,0,0)"/>
 <path style="opacity:0.2;fill:#ffffff" d="m 7,3.9996064 c -1.6619977,0 -3,1.3380023 -3,3 l 0,1 c 0,-1.6619977 1.3380023,-3 3,-3 l 50,0 c 1.661998,0 3,1.3380023 3,3 l 0,-1 c 0,-1.6619977 -1.338002,-3 -3,-3 l -50,0 z"/>
 <path style="fill:#707070;fill-rule:evenodd" d="M 6.7999962,60 31.999962,34.800034 57.199928,60 Z"/>
 <path style="fill:#9f9f9f;fill-rule:evenodd" d="M 59.999924,57.200003 34.799958,32.000037 59.999924,6.8000714 Z"/>
 <path style="fill:#ffffff;fill-rule:evenodd" d="m 34.475959,29.400041 -4.953193,4.953193 25.527965,25.523966 1.949217,0 c 1.661998,0 2.999996,-1.337998 2.999996,-2.999996 l 0,-1.949198 -25.523965,-25.527965 z"/>
 <path style="fill:#ffffff;fill-rule:evenodd" d="M 55.049931,4.0000752 4,55.000006 4,56.949204 C 4,58.611201 5.3379982,59.9492 6.9999959,59.9492 l 1.9492174,0 51.0499307,-51.1999312 0,-1.9491974 c 0,-1.6619978 -1.337998,-2.999996 -2.999996,-2.999996 l -1.949217,0 z"/>
</svg>
